assets/No pedestrians/Flat/no_pedestrians_flat.svg

<svg width="32" height="32" viewBox="0 0 32 32" fill="none" xmlns="http://www.w3.org/2000/svg">
<path d="M27.875 15.9375C27.875 22.5304 22.5304 27.875 15.9375 27.875C9.3446 27.875 4 22.5304 4 15.9375C4 9.3446 9.3446 4 15.9375 4C22.5304 4 27.875 9.3446 27.875 15.9375Z" fill="white"/>
<path d="M14.9285 9.42395C15.7569 9.42395 16.4285 8.75238 16.4285 7.92395C16.4285 7.09552 15.7569 6.42395 14.9285 6.42395C14.1 6.42395 13.4285 7.09552 13.4285 7.92395C13.4285 8.75238 14.1 9.42395 14.9285 9.42395Z" fill="black"/>
<path d="M16.7215 9.78274C16.9888 9.74343 17.2606 9.81394 17.4751 9.97821L20.3709 12.1963C20.561 12.3419 20.6926 12.551 20.7416 12.7855L21.2493 15.2136C21.3623 15.7542 21.0157 16.284 20.4751 16.3971C19.9345 16.5101 19.4047 16.1635 19.2916 15.6229L18.8599 13.5582L17.9393 12.853L18.35 15.8776C18.3643 15.9449 18.3718 16.0148 18.3718 16.0864V18.8174L21.2107 22.7331C21.5349 23.1802 21.4352 23.8055 20.9881 24.1297C20.5409 24.4539 19.9157 24.3542 19.5915 23.907L16.5622 19.7287C16.4384 19.558 16.3718 19.3526 16.3718 19.1417V17.7254L14.8986 19.5024V24.1035C14.8986 24.6558 14.4508 25.1035 13.8986 25.1035C13.3463 25.1035 12.8986 24.6558 12.8986 24.1035V19.1417C12.8986 18.9087 12.98 18.6829 13.1287 18.5035L15.0378 16.2009L14.8107 13.6277L14.3019 14.8719C14.1707 15.1928 13.8826 15.4228 13.5407 15.4798L10.1089 16.0516C9.56408 16.1424 9.04886 15.7743 8.95809 15.2296C8.86731 14.6848 9.23535 14.1696 9.78012 14.0788L12.6618 13.5986L13.8466 10.7016C13.9804 10.3745 14.2769 10.1422 14.6266 10.0908L16.7215 9.78274Z" fill="black"/>
<path d="M16 30C23.732 30 30 23.732 30 16C30 8.26801 23.732 2 16 2C8.26801 2 2 8.26801 2 16C2 23.732 8.26801 30 16 30ZM27 16C27 22.0751 22.0751 27 16 27C9.92487 27 5 22.0751 5 16C5 9.92487 9.92487 5 16 5C22.0751 5 27 9.92487 27 16Z" fill="black"/>
<path d="M16 30C23.732 30 30 23.732 30 16C30 8.26801 23.732 2 16 2C8.26801 2 2 8.26801 2 16C2 23.732 8.26801 30 16 30ZM22.6453 24.7666C20.7991 26.1682 18.4967 27 16 27C9.92487 27 5 22.0751 5 16C5 13.5033 5.8318 11.2009 7.23339 9.35471L22.6453 24.7666ZM24.7666 22.6453L9.35471 7.23339C11.2009 5.8318 13.5033 5 16 5C22.0751 5 27 9.92487 27 16C27 18.4967 26.1682 20.7991 24.7666 22.6453Z" fill="#F8312F"/>
</svg>

<svg xmlns="http://www.w3.org/2000/svg" width="32" height="32" fill="none"><path fill="#fff" d="M27.875 15.938c0 6.592-5.345 11.937-11.938 11.937C9.346 27.875 4 22.53 4 15.937 4 9.346 9.345 4 15.938 4c6.592 0 11.937 5.345 11.937 11.938Z"/><path fill="#000" d="M14.928 9.424a1.5 1.5 0 1 0 0-3 1.5 1.5 0 0 0 0 3ZM16.721 9.783a1 1 0 0 1 .754.195l2.896 2.218a1 1 0 0 1 .37.59l.508 2.428a1 1 0 0 1-1.957.409l-.432-2.065-.92-.705.41 3.025c.014.067.022.137.022.208v2.731l2.839 3.916a1 1 0 1 1-1.62 1.174l-3.029-4.178a1 1 0 0 1-.19-.587v-1.417l-1.473 1.777v4.602a1 1 0 0 1-2 0v-4.962a1 1 0 0 1 .23-.639l1.909-2.302-.227-2.573-.51 1.244a1 1 0 0 1-.76.608l-3.432.572a1 1 0 0 1-.329-1.973l2.882-.48 1.185-2.897a1 1 0 0 1 .78-.611l2.094-.308Z"/><path fill="#000" d="M16 30c7.732 0 14-6.268 14-14S23.732 2 16 2 2 8.268 2 16s6.268 14 14 14Zm11-14c0 6.075-4.925 11-11 11S5 22.075 5 16 9.925 5 16 5s11 4.925 11 11Z"/><path fill="#F8312F" d="M16 30c7.732 0 14-6.268 14-14S23.732 2 16 2 2 8.268 2 16s6.268 14 14 14Zm6.645-5.233A10.952 10.952 0 0 1 16 27C9.925 27 5 22.075 5 16c0-2.497.832-4.8 2.233-6.645l15.412 15.412Zm2.122-2.122L9.355 7.233A10.952 10.952 0 0 1 16 5c6.075 0 11 4.925 11 11 0 2.497-.832 4.8-2.233 6.645Z"/></svg>
